src/next/cmd/sc_attributepagesize.svg

<svg enable-background="new 0 0 128 128" height="16" viewBox="0 0 16 16" width="16" xmlns="http://www.w3.org/2000/svg" xmlns:xlink="http://www.w3.org/1999/xlink"><radialGradient id="a" cx="102" cy="112.3047" gradientTransform="matrix(.9787234 0 0 .9818182 1.361705 1.163636)" gradientUnits="userSpaceOnUse" r="139.55859"><stop offset="0" stop-color="#ececec"/><stop offset=".2363" stop-color="#fafafa"/><stop offset=".2722" stop-color="#fff"/><stop offset=".5313" stop-color="#fafafa"/><stop offset=".8449" stop-color="#ebecec"/><stop offset="1" stop-color="#e1e2e3"/></radialGradient><radialGradient id="b" cx="102" cy="112.3047" gradientUnits="userSpaceOnUse" r="139.5585"><stop offset="0" stop-color="#ecf2f5"/><stop offset=".2435" stop-color="#fafcfd"/><stop offset=".2722" stop-color="#fff"/></radialGradient><linearGradient id="c" gradientTransform="matrix(.12101471 0 0 .07106348 1.031882 7.431486)" gradientUnits="userSpaceOnUse" x1="12.131731" x2="16.263462" xlink:href="#d" y1="120.57536" y2="-83.467491"/><linearGradient id="d"><stop offset="0" stop-color="#0968ef"/><stop offset="1" stop-color="#aecffc"/></linearGradient><linearGradient id="e" gradientTransform="matrix(.12101471 0 0 -.07106348 1.031882 8.5685)" gradientUnits="userSpaceOnUse" x1="12.131731" x2="12.131733" xlink:href="#d" y1="120.57536" y2="-76.43158"/><filter id="f"><feGaussianBlur stdDeviation="1.0394514"/></filter><filter id="g"><feGaussianBlur stdDeviation=".50063244"/></filter><g transform="matrix(.125 0 0 .125 1 0)"><path d="m22 6 .021484 58-.021484 58h.042969 55.677734 36.279297v-36.072266-43.855468-36.072266h-36.279297-55.677734z" filter="url(#f)" opacity=".715069" stroke-width="1.038686"/><path d="m22 7 .021484 57.5-.021484 57.5h.042969 55.677734 36.279297v-36.072266-42.855468-36.072266h-36.279297-55.677734z" filter="url(#f)" opacity=".835616" stroke-width="1.038686"/><path d="m32.599999 10.931136v108.137934l50.996001-.0001c.53 0 1.039-.211 1.414-.586l31.484-31.765936c.375-.375.586-.884.586-1.414v-74.371898z" filter="url(#g)" opacity=".89589" transform="matrix(1.0416667 0 0 1.0357143 -9.958333 -3.321534)"/><path d="m24 8v112h53.171875 34.828125v-34.828125-42.34375-34.828125h-34.828125z" fill="url(#b)"/><path d="m32.679688 16c-.539277 0-.980469.44144-.980469.982422l.15039 47.017578-.15039 47.01758c0 .54098 1.002149 1.52126.980469.98242h.298828 43.914062 26.128902c.54025 0 .97852-.44144.97852-.98242v-26.230471-41.574218-26.230469c0-.540982-.43827-.982422-.97852-.982422h-26.128902-43.914062z" fill="url(#a)"/></g><g stroke-width=".472441"><path d="m2.0820283-.00001-2.0820283 2.5000015.49999841.4999985 1.49999989-.9999969v5.9999999h1.0000017v-5.9999999l1.4999998.9999969.4999987-.4999985-2.0820333-2.5000015z" fill="url(#e)"/><path d="m2.0820283 15.999996-2.0820283-2.500001.49999841-.499999 1.49999989.999996v-5.999999h1.0000017v5.999999l1.4999998-.999996.4999987.499999-2.0820333 2.500001z" fill="url(#c)"/></g></svg>

<?xml version="1.0" encoding="UTF-8" standalone="no"?>
<svg
   xmlns:dc="http://purl.org/dc/elements/1.1/"
   xmlns:cc="http://creativecommons.org/ns#"
   xmlns:rdf="http://www.w3.org/1999/02/22-rdf-syntax-ns#"
   xmlns:svg="http://www.w3.org/2000/svg"
   xmlns="http://www.w3.org/2000/svg"
   xmlns:xlink="http://www.w3.org/1999/xlink"
   xmlns:sodipodi="http://sodipodi.sourceforge.net/DTD/sodipodi-0.dtd"
   xmlns:inkscape="http://www.inkscape.org/namespaces/inkscape"
   enable-background="new 0 0 128 128"
   height="16"
   viewBox="0 0 16 16"
   width="16"
   version="1.1"
   id="svg53"
   sodipodi:docname="sc_attributepagesize.svg"
   inkscape:version="0.92.4 (unknown)"
   inkscape:export-filename="/home/rizmut/Dokumen/Rizmut/Github/libreoffice-style-karasa-jaga/build/next/cmd/sc_attributepagesize.png"
   inkscape:export-xdpi="96"
   inkscape:export-ydpi="96">
  <metadata
     id="metadata59">
    <rdf:RDF>
      <cc:Work
         rdf:about="">
        <dc:format>image/svg+xml</dc:format>
        <dc:type
           rdf:resource="http://purl.org/dc/dcmitype/StillImage" />
        <dc:title></dc:title>
      </cc:Work>
    </rdf:RDF>
  </metadata>
  <defs
     id="defs57" />
  <sodipodi:namedview
     pagecolor="#ffffff"
     bordercolor="#666666"
     borderopacity="1"
     objecttolerance="10"
     gridtolerance="10"
     guidetolerance="10"
     inkscape:pageopacity="0"
     inkscape:pageshadow="2"
     inkscape:window-width="1366"
     inkscape:window-height="706"
     id="namedview55"
     showgrid="true"
     inkscape:zoom="10.429825"
     inkscape:cx="4.6983835"
     inkscape:cy="4.7340576"
     inkscape:window-x="0"
     inkscape:window-y="0"
     inkscape:window-maximized="1"
     inkscape:current-layer="g45">
    <inkscape:grid
       type="xygrid"
       id="grid866" />
  </sodipodi:namedview>
  <radialGradient
     id="a"
     cx="102"
     cy="112.3047"
     gradientTransform="matrix(.9787234 0 0 .9818182 1.361705 1.163636)"
     gradientUnits="userSpaceOnUse"
     r="139.55859">
    <stop
       offset="0"
       stop-color="#ececec"
       id="stop2" />
    <stop
       offset=".2363"
       stop-color="#fafafa"
       id="stop4" />
    <stop
       offset=".2722"
       stop-color="#fff"
       id="stop6" />
    <stop
       offset=".5313"
       stop-color="#fafafa"
       id="stop8" />
    <stop
       offset=".8449"
       stop-color="#ebecec"
       id="stop10" />
    <stop
       offset="1"
       stop-color="#e1e2e3"
       id="stop12" />
  </radialGradient>
  <radialGradient
     id="b"
     cx="102"
     cy="112.3047"
     gradientUnits="userSpaceOnUse"
     r="139.5585">
    <stop
       offset="0"
       stop-color="#ecf2f5"
       id="stop15" />
    <stop
       offset=".2435"
       stop-color="#fafcfd"
       id="stop17" />
    <stop
       offset=".2722"
       stop-color="#fff"
       id="stop19" />
  </radialGradient>
  <linearGradient
     id="c"
     gradientTransform="matrix(.12101471 0 0 .07106348 1.031882 7.431486)"
     gradientUnits="userSpaceOnUse"
     x1="12.131731"
     x2="16.263462"
     xlink:href="#d"
     y1="120.57536"
     y2="-83.467491" />
  <linearGradient
     id="d">
    <stop
       offset="0"
       stop-color="#0968ef"
       id="stop23" />
    <stop
       offset="1"
       stop-color="#aecffc"
       id="stop25" />
  </linearGradient>
  <linearGradient
     id="e"
     gradientTransform="matrix(.12101471 0 0 -.07106348 1.031882 8.5685)"
     gradientUnits="userSpaceOnUse"
     x1="12.131731"
     x2="12.131733"
     xlink:href="#d"
     y1="120.57536"
     y2="-76.43158" />
  <filter
     id="f">
    <feGaussianBlur
       stdDeviation="1.0394514"
       id="feGaussianBlur29" />
  </filter>
  <filter
     id="g">
    <feGaussianBlur
       stdDeviation=".50063244"
       id="feGaussianBlur32" />
  </filter>
  <g
     transform="matrix(.125 0 0 .125 1 0)"
     id="g45">
    <path
       d="M 30,6 30.021484,64 30,122 H 30.042969 77.720703 114 V 85.927734 42.072266 6 H 77.720703 30.042969 Z"
       id="path35"
       inkscape:connector-curvature="0"
       style="opacity:0.71506898;stroke-width:1.03868604;filter:url(#f)"
       sodipodi:nodetypes="cccccccccccc" />
    <path
       d="M 30,7 30.021484,64.5 30,122 H 30.042969 77.720703 114 V 85.927734 43.072266 7 H 77.720703 30.042969 Z"
       id="path37"
       inkscape:connector-curvature="0"
       style="opacity:0.83561599;stroke-width:1.03868604;filter:url(#f)"
       sodipodi:nodetypes="cccccccccccc" />
    <path
       d="M 40.279999,10.931136 V 119.06907 l 43.316001,-1e-4 c 0.53,0 1.039,-0.211 1.414,-0.586 l 31.484,-31.765936 c 0.375,-0.375 0.586,-0.884 0.586,-1.414 V 10.931136 Z"
       transform="matrix(1.0416667,0,0,1.0357143,-9.958333,-3.321534)"
       id="path39"
       inkscape:connector-curvature="0"
       style="opacity:0.89589;filter:url(#g)"
       sodipodi:nodetypes="cccccscc" />
    <path
       d="M 32,8 V 120 H 77.171875 112 V 85.171875 42.828125 8 H 77.171875 Z"
       id="path41"
       inkscape:connector-curvature="0"
       style="fill:url(#b)"
       sodipodi:nodetypes="ccccccccc" />
    <path
       d="m 40.679688,16 c -0.539277,0 -0.980469,0.44144 -0.980469,0.982422 L 39.849609,64 l -0.15039,47.01758 c 0,0.54098 1.002149,1.52126 0.980469,0.98242 h 0.298828 35.914062 26.128902 C 103.56173,112 104,111.55856 104,111.01758 V 84.787109 43.212891 16.982422 C 104,16.44144 103.56173,16 103.02148,16 H 76.892578 40.978516 Z"
       id="path43"
       inkscape:connector-curvature="0"
       style="fill:url(#a)"
       sodipodi:nodetypes="sccccccssccssccs" />
  </g>
  <g
     stroke-width=".472441"
     id="g51">
    <path
       d="m2.0820283-.00001-2.0820283 2.5000015.49999841.4999985 1.49999989-.9999969v5.9999999h1.0000017v-5.9999999l1.4999998.9999969.4999987-.4999985-2.0820333-2.5000015z"
       fill="url(#e)"
       id="path47" />
    <path
       d="m2.0820283 15.999996-2.0820283-2.500001.49999841-.499999 1.49999989.999996v-5.999999h1.0000017v5.999999l1.4999998-.999996.4999987.499999-2.0820333 2.500001z"
       fill="url(#c)"
       id="path49" />
  </g>
</svg>
